X:1
T:MUS240 Sketch #4
T:(for Bb Clarinet)
C:Ali Corbin
M:3/4
L:1/4
Q:1/4=100
K:C
%%MIDI program 1 71 % Clarinet  %%transpose=-2
%%MIDI program 2 71 % Clarinet  %%transpose=-2
V:Top
[K:Ebmin]"^Major Octatonic in A"z3       |E>FG/A/|G3       |A>GF/E/|G2  z|
V:Bottom
[K:Amin]"^Canon at TT"		A,>B,C/D/|C3     |D>CB,/A,/|C3     |B,2 z|
V:Top
"^Major Octatonic in D"d/c/B/A/B|c>Bc     |B3  |A2z   |B2 z|
V:Bottom
"^??? at TT"           z3       |G/F/E/D/F|G>FE|D2F/E/|D2 z|
V:Top
[K:Amin]"^Aeolian in A"z3|E>FG/A/|G3|A>GF/E/|G3|
V:Bottom
[K:Amin]"^Canon at 5th"A,>B,C/D/|C3|D>CB,/A,/|C3|B,3|


